X:16
T:RVW2/2/16 In Jessie's City
L:1/8
Q:1/4=90
M:6/8
I:linebreak $
K:G
"^(Editorial suggestion) " d | d2 G e<ed | dBA G2 d | g2 g B2 d | edd d2 d |$ ede gfg | edB G2 A | 
BAG e2 d | dBA G2 |] 



